svgs/sharp-solid/shuttle-space.svg

<svg xmlns="http://www.w3.org/2000/svg" viewBox="0 0 640 512"><!--! Font Awesome Pro 6.6.0 by @fontawesome - https://fontawesome.com License - https://fontawesome.com/license (Commercial License) Copyright 2024 Fonticons, Inc. --><path d="M192 480l-64 0 0-96 224 0L192 480zM96 380.8l0 3.2 0 96-64 0 0-96-8 0L0 384l0-24 0-32L0 184l0-32 0-24 24 0 8 0 0-96 64 0 0 96 0 3.2L150.7 160 456 160c70.4 0 127.6 23.5 171.2 81.6L638 256l-10.8 14.4C583.6 328.5 526.4 352 456 352l-305.3 0L96 380.8zM128 128l0-96 64 0 160 96-224 0zM512 248c0-22.1-17.9-40-40-40l0 96c22.1 0 40-17.9 40-40l0-16z"/></svg>

<svg xmlns="http://www.w3.org/2000/svg" viewBox="0 0 640 512"><!--! Font Awesome Pro 6.4.0 by @fontawesome - https://fontawesome.com License - https://fontawesome.com/license (Commercial License) Copyright 2023 Fonticons, Inc. --><path d="M192 480H128l0-96 224 0L192 480zM96 380.8V384v96H32V384H24 0V360 328 184 152 128H24h8V32H96l0 96v3.2L150.7 160H456c70.4 0 127.6 23.5 171.2 81.6L638 256l-10.8 14.4C583.6 328.5 526.4 352 456 352H150.7L96 380.8zM128 128V32h64l160 96-224 0zM512 248c0-22.1-17.9-40-40-40v96c22.1 0 40-17.9 40-40V248z"/></svg>
